icons/discord-line.svg

<svg xmlns="http://www.w3.org/2000/svg" width="24" height="24" fill="none"><g clip-path="url(#a)"><g><path fill="#121212" d="M13.914 14.58C13.7537 14.6191 13.5923 14.6538 13.43 14.684C12.5494 14.8498 11.6453 14.8464 10.766 14.674C10.612 14.644 10.394 14.591 10.113 14.516L9.192 15.713C6.919 15.64 6.055 14.117 6.055 14.117C6.055 10.736 7.536 7.995 7.536 7.995C9.017 6.862 10.426 6.893 10.426 6.893L10.829 7.418C10.8661 7.41279 10.9035 7.40946 10.941 7.408C11.7092 7.30617 12.4877 7.30954 13.255 7.418L13.697 6.893C13.697 6.893 15.107 6.862 16.587 7.996C16.587 7.996 18.069 10.736 18.069 14.117C18.069 14.117 17.194 15.639 14.921 15.713L13.914 14.579V14.58ZM10.076 11C9.475 11 9 11.45 9 12C9 12.55 9.485 13 10.076 13C10.676 13 11.151 12.55 11.151 12C11.161 11.45 10.677 11 10.076 11ZM13.924 11C13.324 11 12.849 11.45 12.849 12C12.849 12.55 13.334 13 13.924 13C14.525 13 15 12.55 15 12C15 11.45 14.525 11 13.924 11ZM21 23L16.01 18H19V4H5V18H16.003L16.573 20H5C4.46957 20 3.96086 19.7893 3.58579 19.4142C3.21071 19.0391 3 18.5304 3 18V4C3 3.46957 3.21071 2.96086 3.58579 2.58579C3.96086 2.21071 4.46957 2 5 2H19C19.5304 2 20.0391 2.21071 20.4142 2.58579C20.7893 2.96086 21 3.46957 21 4V23Z"/></g></g><defs><clipPath id="a"><rect width="24" height="24" fill="white"/></clipPath></defs></svg>

<svg width="24" height="24" fill="none" xmlns="http://www.w3.org/2000/svg"><g clip-path="url(#a)"><path d="M13.914 14.58c-.16.04-.322.074-.484.104a7.058 7.058 0 0 1-2.664-.01c-.154-.03-.372-.083-.653-.158l-.921 1.197c-2.273-.073-3.137-1.596-3.137-1.596 0-3.381 1.481-6.122 1.481-6.122 1.481-1.133 2.89-1.102 2.89-1.102l.403.525c.037-.005.074-.009.112-.01a8.527 8.527 0 0 1 2.314.01l.442-.525s1.41-.031 2.89 1.103c0 0 1.482 2.74 1.482 6.121 0 0-.875 1.522-3.148 1.596l-1.007-1.134v.001ZM10.076 11C9.475 11 9 11.45 9 12s.485 1 1.076 1c.6 0 1.075-.45 1.075-1 .01-.55-.474-1-1.075-1Zm3.848 0c-.6 0-1.075.45-1.075 1s.485 1 1.075 1c.601 0 1.076-.45 1.076-1s-.475-1-1.076-1ZM21 23l-4.99-5H19V4H5v14h11.003l.57 2H5a2 2 0 0 1-2-2V4a2 2 0 0 1 2-2h14a2 2 0 0 1 2 2v19Z" /></g><defs><clipPath id="a"><path fill="#fff" d="M0 0h24v24H0z"/></clipPath></defs></svg>
